X:1
T:A Song and a Carol for Christmastide
T:George Pierce Grantham, 1894
T:A Song and a Carol for Christmastide
T:Public Domain
T:Public Domain
T:Public Domain
C:George Pierce Grantham, 1894
Z:Public Domain
%%score ( 1 2 ) ( 3 4 )
L:1/8
M:3/4
K:G
V:1 treble 
V:2 treble 
V:3 bass 
V:4 bass 
V:1
 D2 | [DG]3 [DF] [EG]2 | [EB]3 [EA] [EG]2 | (F2 E2) [CF]2 | [B,G]2 [GB]2 [Fc]2 | %5
w: 1.~A|and a car-|ol for Christ-|mas- * tide|the Prince of|
w: 2.~And|is the sigh-|ing when death’s|dark * wings|ver Par- a-|
w: 3.~A-|and a- way|to the far-|off * land,|the full- ness|
w: 4.~And|was the car-|ol, and loud|the * song|burst from the|
 [Gd]3 [G^c] [Gd]2 | (e2 d2) [GB]2 | [FA]6- | [FA]4 | D2 | [DB]3 [C^A] [DB]2 | [Gd]3 [Fc] [GB]2 | %12
w: the Gold- en|Shore, * Whom|mies||of|in their ves-|ture bright, Love,|
w: dise dark- ly|loom; * And|the||des-|of the lost|ones there, A-|
w: of time was|come, * Now|eth||the|of the Gold-|en Strand From|
w: sil- ver sky,|When * en-|ing||low-|Earth’s sons a-|mong He was|
 [FA]4 [FB]2 | G3 ([DA] [DB]2) | [DA]2 [DA]2 [DF]2 | [^CG]2 [CG]2 [CE]2 | D6- | D4 | [Gd]2 | %19
w: serve, and|a- dore *|er- more. Far,|far be- low,|where||sun-|
w: wait- ing|their last *|tal doom. When|thus spake the|Prince||His|
w: His fair|ev- er- *|ing home. So|down be- low,|and||stained|
w: seen by|the hosts *|high. While song|shall re- sound,|as||years|
 [Gd]4 [Ac]2 | [GB]3 [Gc] [Gd]2 | [Ac]4 [GB]2 | [FA]2 [GB]2 [Fc]2 | [Gd]3 [Gd] [Gd]2 | %24
w: beams glow|On a realm|of His|wide do- main,|Sad ru- in|
w: Fa- ther|dear— “Now life|with a|life~I will buy,|Bring help from|
w: by sin,|In a ma-|ng- er|born~will He be;|There- by a|
w: go round,|Till the moon|and the|stars shall cease;|All glo- ry|
 (e2 d2) [GB]2 | [FA]6- | [FA]4 D2 | [DB]3 [DA] [DB]2 | ([EG]2 [EG]2) [B,D]2 | [Ec]3 [EB] [Ec]2 | %30
w: and * woe,|come|* through|foe, With trou-|ble * and|sor- row and|
w: a- * bove|the|* sons|My love, For|them * I|will suf- fer|
w: lost * world|did|* en-|in, To set|the * loved|ca- p- tives|
w: and * praise|the|* Ancient|Days, And to|men * be|good will and|
 [DA]4 D2 | [Dd]3 [Dc] [DB]2 | [EA]2 [DB]2 [CA]2 | [B,G]6- | [B,G]4 |] %35
w: pain. *|||||
w: and die!”|||||
w: free! *|||||
w: peace! *|||||
V:2
 D2 | x6 | x6 | C4 x2 | x6 | x6 | G4 x2 | x6 | x4 | D2 | x6 | x6 | x6 | G3 x3 | x6 | x6 | D6- | %17
w: song|||Of|||ar-|||light,||||ev-||||
w: sad|||O-|||dark|||pair||||fa-||||
w: way|||When|||speed-|||Lord||||last-||||
w: bright|||Which|||ter-|||ly||||on||||
 D4 | x2 | x6 | x6 | x6 | x6 | x6 | G4 x2 | x6 | x4 D2 | x6 | x6 | x6 | x4 D2 | x6 | x6 | x6 | %34
w: the|||||||hath||His||||||||
w: to|||||||for||of||||||||
w: un-|||||||He||ter||||||||
w: the|||||||to||of||||||||
 x4 |] %35
w: |
w: |
w: |
w: |
V:3
 [G,B,]2 | [G,B,]3 [A,C] [G,B,]2 | [C,D]3 [C,C] [C,B,]2 | [D,A,]4 [D,A,]2 | %4
 [G,,B,]2 [G,D]2 [A,D]2 | [B,D]3 [^A,D] [B,D]2 | (C2 [B,D]2) [G,D]2 | [D,D]6- | [D,D]4 | [D,C]2 | %10
 [G,B,]3 [F,C] [G,B,]2 | B,3 [A,C] [G,D]2 | [D,D]4 [^D,B,]2 | [E,B,]3 ([D,F,] [G,,G,]2) | %14
 [A,,F,]2 [A,,F,]2 [A,,A,]2 | [A,,E,]2 [A,,E,]2 [A,,G,]2 | [D,F,]6- | [D,F,]4 | [B,D]2 | %19
 [B,D]4 [F,D]2 | [G,D]3 [A,D] [B,D]2 | [F,D]4 [G,D]2 | [D,D]2 [G,D]2 [A,D]2 | [B,D]3 [B,D] [B,D]2 | %24
 (C2 [B,D]2) [G,D]2 | [D,D]6- | [D,D]4 [D,F,]2 | [G,,G,]3 [G,,G,] [G,,G,]2 | %28
 ([C,E,]2 [C,E,]2) [B,,G,]2 | [A,,A,]3 [A,,G,] [A,,A,]2 | [D,F,]4 [C,F,]2 | %31
 [B,,G,]3 [A,,F,] [G,,G,]2 | [C,G,]2 [D,G,]2 [D,F,]2 | [G,,G,]6- | [G,,G,]4 |] %35
V:4
 x2 | x6 | x6 | x6 | x6 | x6 | C2 x4 | x6 | x4 | x2 | x6 | B,3 x3 | x6 | x6 | x6 | x6 | x6 | x4 | %18
 x2 | x6 | x6 | x6 | x6 | x6 | C2 x4 | x6 | x6 | x6 | x6 | x6 | x6 | x6 | x6 | x6 | x4 |] %35

